src/info.svg

<svg viewBox="0 0 16 16" fill="none" xmlns="http://www.w3.org/2000/svg"><path d="M7.99998 0.999998C6.38269 1.01163 4.81932 1.58292 3.57559 2.61679C2.33186 3.65066 1.4845 5.08331 1.17754 6.67125C0.870577 8.25918 1.12295 9.90442 1.89176 11.3273C2.66058 12.7502 3.89839 13.863 5.39483 14.4766C6.89127 15.0901 8.554 15.1665 10.1004 14.6929C11.6468 14.2192 12.9815 13.2247 13.8776 11.8783C14.7737 10.5319 15.176 8.91675 15.016 7.30735C14.856 5.69795 14.1436 4.19361 13 3.05C12.344 2.39402 11.5641 1.87498 10.7058 1.52305C9.84742 1.17113 8.92766 0.993328 7.99998 0.999998ZM7.99998 14C6.61178 14.0012 5.26611 13.521 4.19227 12.6413C3.11844 11.7615 2.38288 10.5366 2.11094 9.17534C1.83901 7.81404 2.04752 6.40056 2.70096 5.17577C3.35439 3.95097 4.4123 2.99065 5.69443 2.45845C6.97656 1.92625 8.40356 1.85509 9.73228 2.25711C11.061 2.65912 12.2092 3.50944 12.9812 4.66315C13.7533 5.81687 14.1014 7.20259 13.9662 8.58419C13.831 9.96579 13.221 11.2578 12.24 12.24C11.1158 13.3655 9.59074 13.9986 7.99998 14Z" fill="#111111"/><path d="M8.49998 4.5H7.49998V5.5H8.49998V4.5Z" fill="#111111"/><path d="M8.49998 6.5H6.49998V7.5H7.49998V11H6.49998V12H9.49998V11H8.49998V6.5Z" fill="#111111"/></svg>

<svg viewBox="0 0 16 16" fill="none" xmlns="http://www.w3.org/2000/svg"><path d="M8 1a7 7 0 1 0 .1 14A7 7 0 0 0 8 1Zm0 13a6 6 0 1 1-.01-12A6 6 0 0 1 8 14Z" fill="#111111"/><path d="M8.5 4.5h-1v1h1v-1Zm0 2h-2v1h1V11h-1v1h3v-1h-1V6.5Z" fill="#111111"/></svg>
